X:1087
T:When Irish Eyes Are Smiling
C:Joe Buchanan's Scottish Tome - Page 540.2
I:540 2
Z:Carl Allison
R:Folk
L:1/4
M:3/4
K:D
A | "D"F2 F | "G"E2 D | "D"F A2 | A F D | "G"G2 B | d2 B | "D"A3- | A B c |
"G"d2 c | "B g"d2 c | "D"B A2- | "B"A G F | "E"B2 E | "E7"E2 F | "A"E3- | "A7"E2 A |
"D"F2 F | "G"E2 D | "D"F A2 | "F# d"A F D | "G"G2 B | d2 B | "D"A3- | "A d"A B c |
"G"d2 c | "B g"e2 d | "D"f3 | "A d"A ^G A | "E"B c d | "A7"e2 d | "D"d3- | "D7"d2 |]

